X: 29736
T: Nyth Y Gog
R: hornpipe
M: 4/4
K: Gmajor
|:F2|GFGF E2 ge|dBAG FAGF|GFGA BABc|d2 A2 A2 F2|
GFGF E2 ge|dBAG FAGF|GFGA BcBA|G2 E2 E2:|
|:B2|e^def egfe|d2 B2 B3 A|GBdB GBdB|c2 A2 A3 B|
e^def egfe|d2 B2 B3 A|GFGA BcBA|G2 E2 E2:|
|:G2|BGEG BGEG|BGBG E2 FG|AFDF AFDF|AFAF D2 EF|
GFGF E2 ge|dBAG FAGF|GFGA BcBA|G2 E2 E2:|

